X:1
T:Exalt the King
T:Exalt the King
T:Ira Bishop Wilson
T:Salathial Cleaver Kirk, 1910
T:Public Domain Courtesy of the Cyber Hymnal™
T:Public Domain Courtesy of the Cyber Hymnal™
C:Ira Bishop Wilson
Z:Public Domain
Z:Courtesy of the Cyber Hymnal™
%%score ( 1 2 ) ( 3 4 )
L:1/8
Q:1/4=87
M:4/4
K:C
V:1 treble 
V:2 treble 
V:3 bass 
V:4 bass 
V:1
 G | [Ec]>G EC [CA]3 [FA] | [^Fd]>[Fc] [FB][FA] [GB]3 [GB] | [Gc]>[Gc] [Gc][Gc] [Gd]2 G2 | %4
w: 1.~The|ris- en, liv- ing Christ let|ev- ery heart a- dore! To|Him all praise and glo- ry|
w: 2.~He|lives, the ris- en Christ! he|lives no more to die! He|lives e- ter- nal- ly to|
w: 3.~Ex-|alt the ris- en Christ! ex-|alt the liv- ing King! Ex-|alt the Lord Im- man- u-|
 [Ge]6 z [Ge] | [Gf]>[Gf] [Ge][Gd] [Ge]3 [Gc] | [^Gd]>[Gd] [Gc][GB] [Ac]3 [Ac] | %7
w: be! The|Christ of yes- ter- day, to-|day and ev- er- more, The|
w: reign! When|all the saints re- deemed, and|an- gel hosts on high Shall|
w: el! While|sweet- ly in our hearts the|Eas- ter car- ols ring, Oh,|
 [GB]>[^FA] [GB][Gc] [Gd]2 [Fd]2 | G6 x2 ||"^Refrain" c2 [CE] B2 [CE] A2 ([CE] E2) | %10
w: ev- er- last- ing Lord is|He.||
w: swell the hal- le- lu- jah|strain.||
w: let Him there su- preme- ly|dwell.|Glo- ry be and ma- jes- *|
 G3 ([B,F] [B,F])[CFA] G3 [CE][CE][CEG] | A3 [CE] ([CE][CEA]) B2 c2 [=FA] | [FBd]6 G2 | %13
w: |||
w: |||
w: ty, And * praise for- ev- er- more,|* To Thee, * our king and|* con-|
 e2 [EG] B2 [FG] c2 ^c2 [GA] | d2 [FA] A2 [=DF] !fermata![^DAc]3 [DAc] | %15
w: ||
w: ||
w: quer- or, To Thee our might- y|* Prince of Power. * *|
 [EGc][CG][CFA][FAc] [Gce]2 [FGd]2 | [EGc]6 z |] %17
w: ||
w: ||
w: ||
V:2
 G | x3/2 G/ EC x4 | x8 | x6 G2 | x8 | x8 | x8 | x8 | (G4 GGAB) || ([CE][CE][CE]C C) x6 | %10
 [B,F] [CE] x10 | ([CE]DD) [^FA] x7 | x6 (GF) | ([EG][FG]GG) [GA] x6 | [FA] [^DF] x8 | x8 | x7 |] %17
V:3
 G, | [C,G,]>G, E,C, F,3 [F,C] | [D,C]>[D,A,] [D,D][D,D] [G,D]3 [F,D] | %3
 [E,C]>[E,C] [E,C][E,C] [G,B,]2 [B,D]2 | C6 z C | [B,D]>[B,D] [G,C][G,B,] C3 [E,C] | %6
 [E,B,]>[E,B,] [E,E][E,E] [A,E]3 [A,E] | [D,D]>[D,D] [D,D][D,A,] [D,B,]2 [D,C]2 | %8
 (z2 [F,,F,]2 [E,,E,]2 [D,,D,]2) || [C,,E,]2 [G,,,G,,]2 [C,,C,]2 [G,,,G,,]2 x3 | %10
 [D,,D,]2 [G,,,G,,]2 ([C,,C,][D,,D,][C,,C,])[B,,,B,,] x4 | %11
 [A,,,A,,]2 ([A,,A,][G,,G,]) [^F,,^F,]2 [D,,D,]2 x3 | %12
 ([G,,G,][A,,A,][B,,B,][A,,A,][G,,G,][F,,F,]) ([E,,E,][D,,D,]) | %13
 [C,,C,]2 [D,,D,]2 [E,,E,]2 [E,,E,]2 x3 | [F,,F,]2 [F,,F,]2 !fermata![^F,,^F,]3 [F,,F,] x2 | %15
 [G,,G,][E,,E,][F,,F,][D,,D,] A,2 [G,B,]2 | [C,G,C]6 z |] %17
V:4
 G, | x3/2 G,/ E,C, F,3 x | x8 | x8 | C6 C x | x4 C3 x | x8 | x8 | [G,B,]6 x2 || x11 | x12 | x11 | %12
 x8 | x11 | x10 | x8 | x7 |] %17

